X:1903
L:1/8
M:2/2
K:G
 D |: G2 BG D2 EF | G2 Bd gdBG | c2 ec B2 dB | AcBA ADEF | G2 BG D2 EF | G2 Bd g3 g | fafd ege^c |1 
 d2 dd d=cAF :|2 d2 dd d3 c |: Bddd eddd | gddd Bddd | efgf edcB | ABcA GFED | DGGG DGGG | 
 EGGG DGGG |1 Bdfe dcAF | G2 Bd g2 dc :|2 Ggfg ecAF | G2 GG GD!D.C.! ||

